X: 13409
T: Flitter
R: jig
M: 6/8
K: Adorian
cBA Aed|cBA ABc|d2c B2A|GAB E3|
cBA Aed|cBA ABc|d2B A2 G|ABG A3:|
|:cde efg|aed efg|aed edc|cde BAB|
cde efg|aed efg|a2e d2c|BAG A3:|

